!!!OTL: 71b. Der blaue Storch.
!!!ARE: Europa, Mitteleuropa, Deutschland, Schwaben
!!!SCT: E0071
!!!YEM: Copyright 1995, estate of Helmut Schaffrath.
**kern	**text
*ICvox	*
*M4/4	*
*met(c)	*
*k[f#]	*
*G:	*
!LO:TX:a:t=Lustig.	!
!LO:TX:a:t=Mündlich von Dr. Birlinger. (1888 vorgeſungen).	!
{4d	Han-
=1	=1
4.g	-i
8d	en
4g	blau-
4a	-en
=2	=2
4b/	Stor-
4a	-ken
4g}	gſeh,
{8b	thät
8cc	uf
=3	=3
4.dd	e-
8dd	-ner
4dd	Wie-
4b	-ſe
=4	=4
2a	geh,
4r}	.
{8gL	i
8bJ	.
=5	=5
4dd	ha
4dd	gmeint's
4dd	ſei
4b	mein
=6	=6
2ee	Buh-
4dd}	-le.
{8bL	i
8ccJ	.
=7	=7
4dd	hane
4dd	heiße
4b/	ſtil-
4a	-le
=8	=8
2g	ſteh.
4r}	.
==	==
!!!AGN: erzaehlendes Volks - Lied, Sage, Liebe, Ballade ?
!!!ONB: ESAC (Essen Associative Code) Database: ERK1
!!!AMT: simple quadruple
!!!AIN: vox
!!!EED: Helmut Schaffrath
!!!EEV: 1.0
!!!GTL: Liebesgeschichten mit gluecklichem Ausgange
!!!URL-scan: https://rosdok.uni-rostock.de/mcrviewer/recordIdentifier/rosdok_ppn745146120/iview2/phys_0317.iview2?x=-495.6391625615772&y=849.8987499421928&scale=0.46294184720638515&rotation=0&layout=singlePageLayout&logicalDiv=log_0009
!!!ENC: Anna Maria Matuszewska
!!!EEV: 2024/11/26
*-	*-
